packages/web/app/assets/images/plus_circle.svg

<svg fill="none" height="25" viewBox="0 0 25 25" width="25" xmlns="http://www.w3.org/2000/svg"><g fill="#326699"><path d="m21.4005 3.71797c-2.3678-2.39766-5.528-3.71797-8.8977-3.71797-3.30865 0-6.42902 1.28125-8.78356 3.60625-2.37876 2.34531-3.697865 5.47578-3.71896438 8.81565-.02188082 3.3383 1.25971438 6.4844 3.60487438 8.8617 2.3686 2.3977 5.52961 3.7164 8.89925 3.7164 3.3087 0 6.4291-1.2805 8.786-3.6039 4.9028-4.8445 4.9521-12.77501.1101-17.67813zm-1.2964 16.47573c-2.0373 2.0133-4.7372 3.1204-7.5997 3.1204-2.91561 0-5.64994-1.1414-7.69893-3.2157-2.03179-2.0562-3.13912-4.7781-3.12037-7.6664.01798-2.88825 1.16203-5.59684 3.21727-7.62653 2.03727-2.01172 4.73643-3.12031 7.59973-3.12031 2.9148 0 5.6491 1.14218 7.6973 3.2164 4.1941 4.24375 4.148 11.10234-.0953 15.29214z"/><path d="m19.1422 11.6578h-5.7953v-5.79451c0-.4664-.3775-.84297-.8432-.84297-.4666 0-.8424.37657-.8424.84297v5.79451h-5.79613c-.46575 0-.8432.3766-.8432.8422s.37667.8422.8432.8422h5.79613v5.7937c0 .4657.3758.843.8424.843.4649 0 .8432-.3773.8432-.843v-5.7937h5.7953c.4665 0 .8424-.3766.8424-.8422 0-.4664-.3775-.8422-.8424-.8422z"/></g></svg>

<svg width="25" height="25" viewBox="0 0 25 25" fill="none" xmlns="http://www.w3.org/2000/svg">
<path d="M21.4005 3.71797C19.0327 1.32031 15.8725 0 12.5028 0C9.19415 0 6.07378 1.28125 3.71924 3.60625C1.34048 5.95156 0.021375 9.08203 0.000275621 12.4219C-0.0216052 15.7602 1.25999 18.9063 3.60515 21.2836C5.97375 23.6813 9.13476 25 12.5044 25C15.8131 25 18.9335 23.7195 21.2904 21.3961C26.1932 16.5516 26.2425 8.62109 21.4005 3.71797ZM20.1041 20.1937C18.0668 22.207 15.3669 23.3141 12.5044 23.3141C9.58879 23.3141 6.85446 22.1727 4.80547 20.0984C2.77368 18.0422 1.66635 15.3203 1.6851 12.432C1.70308 9.54375 2.84713 6.83516 4.90237 4.80547C6.93964 2.79375 9.6388 1.68516 12.5021 1.68516C15.4169 1.68516 18.1512 2.82734 20.1994 4.90156C24.3935 9.14531 24.3474 16.0039 20.1041 20.1937Z" fill="#326699"/>
<path d="M19.1422 11.6578H13.3469V5.86329C13.3469 5.39689 12.9694 5.02032 12.5037 5.02032C12.0371 5.02032 11.6613 5.39689 11.6613 5.86329V11.6578H5.86517C5.39942 11.6578 5.02197 12.0344 5.02197 12.5C5.02197 12.9656 5.39864 13.3422 5.86517 13.3422H11.6613V19.1359C11.6613 19.6016 12.0371 19.9789 12.5037 19.9789C12.9686 19.9789 13.3469 19.6016 13.3469 19.1359V13.3422H19.1422C19.6087 13.3422 19.9846 12.9656 19.9846 12.5C19.9846 12.0336 19.6071 11.6578 19.1422 11.6578Z" fill="#326699"/>
</svg>
